X: 7
T: The Rowling Hornpipe
B: A Northern Lass, Compiled Jamie Knowles, Pub. Mallinson
O: England - most likely Cheshire
Z: Anahata (anahata@treewind.co.uk)
K: D
M: 3/2
L: 1/8
dcdD EDEC DEFA | GFED C3F EFGE | dcdD EDEC DEFG | AGFE D3F EFGE ||!
ABcA BcdB c2BA | GFED C3F EFGE | ABcA defA d2cB | AGFE D3F EFGE ||!
fagf egfe d2ef | gfed c3f efge | fagf egfe d2cB | AGFE D3F EFGE ||
